assets/icons/home_light.svg

<?xml version="1.0" encoding="utf-8"?><!-- Uploaded to: SVG Repo, www.svgrepo.com, Generator: SVG Repo Mixer Tools -->
<svg width="800px" height="800px" viewBox="0 0 24 24" fill="none" xmlns="http://www.w3.org/2000/svg">
<path fill-rule="evenodd" clip-rule="evenodd" d="M12.2796 3.71579C12.097 3.66261 11.903 3.66261 11.7203 3.71579C11.6678 3.7311 11.5754 3.7694 11.3789 3.91817C11.1723 4.07463 10.9193 4.29855 10.5251 4.64896L5.28544 9.3064C4.64309 9.87739 4.46099 10.0496 4.33439 10.24C4.21261 10.4232 4.12189 10.6252 4.06588 10.8379C4.00765 11.0591 3.99995 11.3095 3.99995 12.169V17.17C3.99995 18.041 4.00076 18.6331 4.03874 19.0905C4.07573 19.536 4.14275 19.7634 4.22513 19.9219C4.41488 20.2872 4.71272 20.5851 5.07801 20.7748C5.23658 20.8572 5.46397 20.9242 5.90941 20.9612C6.36681 20.9992 6.95893 21 7.82995 21H7.99995V18C7.99995 15.7909 9.79081 14 12 14C14.2091 14 16 15.7909 16 18V21H16.17C17.041 21 17.6331 20.9992 18.0905 20.9612C18.5359 20.9242 18.7633 20.8572 18.9219 20.7748C19.2872 20.5851 19.585 20.2872 19.7748 19.9219C19.8572 19.7634 19.9242 19.536 19.9612 19.0905C19.9991 18.6331 20 18.041 20 17.17V12.169C20 11.3095 19.9923 11.0591 19.934 10.8379C19.878 10.6252 19.7873 10.4232 19.6655 10.24C19.5389 10.0496 19.3568 9.87739 18.7145 9.3064L13.4748 4.64896C13.0806 4.29855 12.8276 4.07463 12.621 3.91817C12.4245 3.7694 12.3321 3.7311 12.2796 3.71579ZM11.1611 1.79556C11.709 1.63602 12.2909 1.63602 12.8388 1.79556C13.2189 1.90627 13.5341 2.10095 13.8282 2.32363C14.1052 2.53335 14.4172 2.81064 14.7764 3.12995L20.0432 7.81159C20.0716 7.83679 20.0995 7.86165 20.1272 7.88619C20.6489 8.34941 21.0429 8.69935 21.3311 9.13277C21.5746 9.49916 21.7561 9.90321 21.8681 10.3287C22.0006 10.832 22.0004 11.359 22 12.0566C22 12.0936 22 12.131 22 12.169V17.212C22 18.0305 22 18.7061 21.9543 19.2561C21.9069 19.8274 21.805 20.3523 21.5496 20.8439C21.1701 21.5745 20.5744 22.1701 19.8439 22.5496C19.3522 22.805 18.8274 22.9069 18.256 22.9543C17.706 23 17.0305 23 16.2119 23H15.805C15.7972 23 15.7894 23 15.7814 23C15.6603 23 15.5157 23.0001 15.3883 22.9895C15.2406 22.9773 15.0292 22.9458 14.8085 22.8311C14.5345 22.6888 14.3111 22.4654 14.1688 22.1915C14.0542 21.9707 14.0227 21.7593 14.0104 21.6116C13.9998 21.4843 13.9999 21.3396 13.9999 21.2185L14 18C14 16.8954 13.1045 16 12 16C10.8954 16 9.99995 16.8954 9.99995 18L9.99996 21.2185C10 21.3396 10.0001 21.4843 9.98949 21.6116C9.97722 21.7593 9.94572 21.9707 9.83107 22.1915C9.68876 22.4654 9.46538 22.6888 9.19142 22.8311C8.9707 22.9458 8.75929 22.9773 8.6116 22.9895C8.48423 23.0001 8.33959 23 8.21847 23C8.21053 23 8.20268 23 8.19495 23H7.78798C6.96944 23 6.29389 23 5.74388 22.9543C5.17253 22.9069 4.64769 22.805 4.15605 22.5496C3.42548 22.1701 2.8298 21.5745 2.4503 20.8439C2.19492 20.3523 2.09305 19.8274 2.0456 19.2561C1.99993 18.7061 1.99994 18.0305 1.99995 17.212L1.99995 12.169C1.99995 12.131 1.99993 12.0936 1.99992 12.0566C1.99955 11.359 1.99928 10.832 2.1318 10.3287C2.24383 9.90321 2.42528 9.49916 2.66884 9.13277C2.95696 8.69935 3.35105 8.34941 3.87272 7.8862C3.90036 7.86165 3.92835 7.83679 3.95671 7.81159L9.22354 3.12996C9.58274 2.81064 9.89467 2.53335 10.1717 2.32363C10.4658 2.10095 10.781 1.90627 11.1611 1.79556Z" fill="#0F1729"/>
</svg>

<svg xmlns="http://www.w3.org/2000/svg" width="800" height="800" fill="none" viewBox="0 0 24 24"><path fill="#0f1729" fill-rule="evenodd" d="M12.28 3.716a1 1 0 0 0-.56 0c-.052.015-.145.053-.341.202-.207.157-.46.38-.854.731l-5.24 4.657c-.642.571-.824.744-.95.934a2 2 0 0 0-.27.598c-.057.221-.065.472-.065 1.331v5.001c0 .871 0 1.463.039 1.92.037.446.104.673.186.832a2 2 0 0 0 .853.853c.159.082.386.15.831.186C6.367 21 6.96 21 7.83 21H8v-3a4 4 0 0 1 8 0v3h.17c.871 0 1.463 0 1.92-.039.446-.037.673-.104.832-.186a2 2 0 0 0 .853-.853c.082-.159.15-.386.186-.832.038-.457.039-1.049.039-1.92v-5.001c0-.86-.008-1.11-.066-1.331a2 2 0 0 0-.268-.598c-.127-.19-.31-.363-.951-.934l-5.24-4.657c-.394-.35-.647-.574-.854-.73-.197-.15-.289-.188-.341-.203m-1.119-1.92a3 3 0 0 1 1.678 0c.38.11.695.305.99.528.276.21.588.487.947.806l5.267 4.682.084.074c.522.463.916.813 1.204 1.247a4 4 0 0 1 .537 1.196c.133.503.132 1.03.132 1.728v5.155c0 .819 0 1.494-.046 2.044-.047.571-.149 1.096-.404 1.588a4 4 0 0 1-1.706 1.706c-.492.255-1.017.357-1.588.404-.55.046-1.226.046-2.044.046h-.431c-.12 0-.265 0-.393-.01a1.5 1.5 0 0 1-.58-.159 1.5 1.5 0 0 1-.64-.64 1.5 1.5 0 0 1-.158-.58c-.01-.127-.01-.271-.01-.393V18a2 2 0 0 0-4 0v3.218c0 .122 0 .266-.01.394-.013.147-.044.359-.159.58a1.5 1.5 0 0 1-.64.64c-.22.114-.432.145-.58.157C8.485 23 8.34 23 8.219 23h-.43c-.819 0-1.494 0-2.044-.046-.571-.047-1.096-.149-1.588-.404a4 4 0 0 1-1.706-1.706c-.255-.492-.357-1.017-.404-1.588C2 18.706 2 18.03 2 17.212v-5.155c0-.698 0-1.225.132-1.728a4 4 0 0 1 .537-1.196c.288-.434.682-.784 1.204-1.247q.04-.037.084-.074L9.224 3.13c.359-.32.67-.597.948-.806.294-.223.609-.418.99-.528" clip-rule="evenodd"/></svg>
